X: 26141
T: McHugh's
R: reel
M: 4/4
K: Edorian
B2BA BdeB|dBAG FDD2|B2BA BdeB|dBAF E2ED|
B/c/d BABd eB|dBAG FADA|B2BA BdeB|dBAF ~E3d|
ed B/c/d efge|fdAd fddf|edBd efge|fedf ~e3f|ed B/c/d efge|
fdAd fddf|~g3e ~f3d|ed B/c/d e3|

